assets/collaboration.svg

<svg fill="#000000" xmlns="http://www.w3.org/2000/svg" viewBox="0 0 50 50" preserveAspectRatio="none"><path d="M 18 2 C 10.353979 2 7 7.0983298 7 11.148438 C 7 14.247127 8.6483639 16.570259 10.810547 17.980469 C 12.97273 19.390678 15.630613 20 18 20 C 19.022146 20 20.095543 19.871965 21.160156 19.621094 C 23.441348 22.027858 26.977244 23 30 23 C 32.378512 23 35.040865 22.355891 37.201172 20.904297 C 39.361478 19.452703 41 17.0895 41 13.960938 C 41 11.472899 39.891773 9.1768562 37.955078 7.5625 C 36.018383 5.9481438 33.279889 5 30 5 C 28.821389 5 27.747107 5.1225893 26.763672 5.3378906 C 26.511393 5.0667139 26.245582 4.8046534 25.955078 4.5625 C 24.018383 2.9481438 21.279889 2 18 2 z M 18 4 C 20.895111 4 23.156226 4.8329656 24.675781 6.0996094 C 24.949718 6.3279528 25.192977 6.5736424 25.419922 6.828125 C 25.419922 6.828125 25.421875 6.8300781 25.421875 6.8300781 A 1.0001 1.0001 0 0 0 25.798828 7.2949219 C 26.58343 8.3578356 27 9.6014352 27 10.960938 C 27 13.419372 25.829631 15.072485 24.085938 16.244141 C 22.342244 17.415796 20.005488 18 18 18 C 15.985387 18 13.644161 17.442681 11.902344 16.306641 C 10.160527 15.1706 9 13.568745 9 11.148438 C 9 8.1505432 11.208021 4 18 4 z M 30 7 C 32.895111 7 35.156226 7.8329656 36.675781 9.0996094 C 38.195336 10.366253 39 12.052974 39 13.960938 C 39 16.419373 37.829631 18.072485 36.085938 19.244141 C 34.342244 20.415796 32.005488 21 30 21 C 27.763466 21 25.171186 20.284752 23.371094 18.894531 C 24.006668 18.618446 24.622533 18.293107 25.201172 17.904297 C 27.361478 16.452703 29 14.089499 29 10.960938 C 29 9.6005199 28.65794 8.3022832 28.041016 7.1367188 C 28.646764 7.0506244 29.29539 7 30 7 z M 5.5 18 C 3.686936 18 2 19.21988 2 21 C 2 22.78012 3.686936 24 5.5 24 C 7.313064 24 9 22.78012 9 21 C 9 19.21988 7.313064 18 5.5 18 z M 44.5 18 C 42.686936 18 41 19.21988 41 21 C 41 22.78012 42.686936 24 44.5 24 C 46.313064 24 48 22.78012 48 21 C 48 19.21988 46.313064 18 44.5 18 z M 5.5 20 C 6.4483598 20 7 20.570981 7 21 C 7 21.429019 6.4483598 22 5.5 22 C 4.5516402 22 4 21.429019 4 21 C 4 20.570981 4.5516402 20 5.5 20 z M 44.5 20 C 45.44836 20 46 20.570981 46 21 C 46 21.429019 45.44836 22 44.5 22 C 43.55164 22 43 21.429019 43 21 C 43 20.570981 43.55164 20 44.5 20 z M 14.03125 24 C 11.8655 24 10.110256 24.542196 8.875 25.576172 C 7.6397437 26.610148 7 28.128576 7 29.75 C 7 30.377976 7.1447151 31.01736 7.2773438 31.564453 C 7.3381257 31.815177 7.3521898 31.841507 7.4003906 32.013672 C 7.1772926 32.370475 7 32.862561 7 33.5 C 7 34.291667 7.2135165 34.971329 7.6679688 35.425781 C 7.8715135 35.629326 8.0910259 35.595035 8.3203125 35.683594 C 8.451964 36.215509 8.5865059 36.756912 8.8203125 37.195312 C 8.9816101 37.497755 9.1542803 37.769668 9.3378906 38.005859 C 9.3801106 38.060169 9.4584739 38.101029 9.5 38.152344 L 9.5 39.703125 C 9.3620466 40.001082 9.0774713 40.289889 8.4824219 40.605469 C 7.8486249 40.941598 6.9780833 41.262268 6.0722656 41.681641 C 5.166448 42.101013 4.2094607 42.626002 3.4296875 43.464844 C 2.6499143 44.303685 2.0920427 45.473609 2.0019531 46.939453 A 1.0001 1.0001 0 0 0 3 48 L 23 48 L 24 48 L 25.96875 48 L 27 48 L 47 48 A 1.0001 1.0001 0 0 0 47.998047 46.939453 C 47.90594 45.440788 47.249604 44.24598 46.365234 43.416016 C 45.480865 42.586051 44.409447 42.076937 43.382812 41.662109 C 42.356178 41.247282 41.359594 40.924227 40.630859 40.582031 C 39.942762 40.258917 39.62407 39.95558 39.5 39.697266 L 39.5 38.150391 C 39.54144 38.099101 39.619942 38.058201 39.662109 38.003906 C 39.845459 37.767837 40.016496 37.497644 40.177734 37.195312 C 40.41148 36.757027 40.547764 36.21534 40.679688 35.683594 C 40.908974 35.595034 41.128486 35.629324 41.332031 35.425781 C 41.786484 34.971329 42 34.291667 42 33.5 C 42 32.862561 41.822707 32.370475 41.599609 32.013672 C 41.647809 31.841507 41.661879 31.815177 41.722656 31.564453 C 41.855285 31.01736 42 30.377976 42 29.75 C 42 28.693857 41.72873 27.557239 41.021484 26.617188 C 40.431158 25.832542 39.4408 25.327897 38.283203 25.150391 L 37.890625 24.490234 A 1.0001 1.0001 0 0 0 37.03125 24 C 34.8655 24 33.110256 24.542196 31.875 25.576172 C 30.639744 26.610148 30 28.128576 30 29.75 C 30 30.377976 30.144715 31.01736 30.277344 31.564453 C 30.338124 31.815177 30.352184 31.841507 30.400391 32.013672 C 30.177293 32.370475 30 32.862561 30 33.5 C 30 34.291667 30.213516 34.971329 30.667969 35.425781 C 30.871514 35.629326 31.091026 35.595035 31.320312 35.683594 C 31.451964 36.215509 31.586507 36.756912 31.820312 37.195312 C 31.98161 37.497755 32.15428 37.769668 32.337891 38.005859 C 32.380111 38.060169 32.458474 38.101029 32.5 38.152344 L 32.5 39.703125 C 32.362047 40.001082 32.077471 40.289889 31.482422 40.605469 C 30.848625 40.941598 29.978083 41.262268 29.072266 41.681641 C 28.166448 42.101013 27.20946 42.626002 26.429688 43.464844 C 25.649914 44.303685 25.092043 45.473609 25.001953 46.939453 A 1.0001 1.0001 0 0 0 25 47 A 1.0001 1.0001 0 0 0 24.998047 46.939453 C 24.90594 45.440788 24.249604 44.24598 23.365234 43.416016 C 22.480865 42.586051 21.409447 42.076937 20.382812 41.662109 C 19.356178 41.247282 18.359594 40.924227 17.630859 40.582031 C 16.942762 40.258917 16.62407 39.95558 16.5 39.697266 L 16.5 38.150391 C 16.54144 38.099101 16.619942 38.058201 16.662109 38.003906 C 16.845459 37.767837 17.016496 37.497644 17.177734 37.195312 C 17.41148 36.757027 17.547764 36.21534 17.679688 35.683594 C 17.908973 35.595034 18.128486 35.629324 18.332031 35.425781 C 18.786484 34.971329 19 34.291667 19 33.5 C 19 32.862561 18.822707 32.370475 18.599609 32.013672 C 18.647809 31.841507 18.661879 31.815177 18.722656 31.564453 C 18.855285 31.01736 19 30.377976 19 29.75 C 19 28.693857 18.72873 27.557239 18.021484 26.617188 C 17.431158 25.832542 16.4408 25.327897 15.283203 25.150391 L 14.890625 24.490234 A 1.0001 1.0001 0 0 0 14.03125 24 z M 3.5 26 A 1.5 1.5 0 0 0 2 27.5 A 1.5 1.5 0 0 0 3.5 29 A 1.5 1.5 0 0 0 5 27.5 A 1.5 1.5 0 0 0 3.5 26 z M 46.5 26 A 1.5 1.5 0 0 0 45 27.5 A 1.5 1.5 0 0 0 46.5 29 A 1.5 1.5 0 0 0 48 27.5 A 1.5 1.5 0 0 0 46.5 26 z M 13.503906 26.070312 L 13.765625 26.509766 A 1.0001 1.0001 0 0 0 14.625 27 C 15.561972 27 16.047621 27.322864 16.421875 27.820312 C 16.796129 28.317761 17 29.056143 17 29.75 C 17 29.997024 16.894715 30.60764 16.777344 31.091797 C 16.659972 31.575954 16.544922 31.955078 16.544922 31.955078 A 1.0001 1.0001 0 0 0 16.919922 33.0625 C 16.932977 33.081805 17 33.172583 17 33.5 C 17 33.958333 16.901019 34.028671 16.917969 34.011719 C 16.93492 33.994766 16.958333 34 16.875 34 A 1.0001 1.0001 0 0 0 15.880859 34.890625 C 15.839279 35.268471 15.643836 35.823069 15.414062 36.253906 C 15.299176 36.469325 15.175713 36.656725 15.082031 36.777344 C 14.988351 36.897962 14.874116 36.946039 15.042969 36.859375 A 1.0001 1.0001 0 0 0 14.5 37.75 L 14.5 40 A 1.0001 1.0001 0 0 0 14.566406 40.355469 C 14.96323 41.396284 15.86925 41.965243 16.779297 42.392578 C 17.689344 42.819914 18.697822 43.137828 19.632812 43.515625 C 20.567804 43.893422 21.413432 44.328183 21.996094 44.875 C 22.335751 45.193762 22.572697 45.567242 22.746094 46 L 4.4238281 46 C 4.5794095 45.61548 4.631922 45.108674 4.8945312 44.826172 C 5.3944456 44.288389 6.106177 43.869221 6.9121094 43.496094 C 7.7180417 43.122966 8.6025314 42.80459 9.4199219 42.371094 C 10.237312 41.937598 11.056982 41.344641 11.433594 40.355469 A 1.0001 1.0001 0 0 0 11.5 40 L 11.5 37.75 A 1.0001 1.0001 0 0 0 10.955078 36.859375 C 11.123724 36.945725 11.009686 36.897844 10.916016 36.777344 C 10.822346 36.656848 10.700764 36.469214 10.585938 36.253906 C 10.356282 35.823291 10.160346 35.268068 10.119141 34.890625 A 1.0001 1.0001 0 0 0 9.125 34 C 9.041667 34 9.0650794 33.994799 9.0820312 34.011719 C 9.0989838 34.02867 9 33.958333 9 33.5 C 9 33.172583 9.0670231 33.081805 9.0800781 33.0625 A 1.0001 1.0001 0 0 0 9.4550781 31.955078 C 9.4550781 31.955078 9.3400279 31.575954 9.2226562 31.091797 C 9.1052849 30.60764 9 29.997024 9 29.75 C 9 28.621424 9.3774596 27.764852 10.158203 27.111328 C 10.850597 26.531757 11.992816 26.159087 13.503906 26.070312 z M 36.503906 26.070312 L 36.765625 26.509766 A 1.0001 1.0001 0 0 0 37.625 27 C 38.561972 27 39.047621 27.322864 39.421875 27.820312 C 39.796129 28.317761 40 29.056143 40 29.75 C 40 29.997024 39.894715 30.60764 39.777344 31.091797 C 39.659972 31.575954 39.544922 31.955078 39.544922 31.955078 A 1.0001 1.0001 0 0 0 39.919922 33.0625 C 39.932977 33.081805 40 33.172583 40 33.5 C 40 33.958333 39.901019 34.028671 39.917969 34.011719 C 39.93492 33.994766 39.958333 34 39.875 34 A 1.0001 1.0001 0 0 0 38.880859 34.890625 C 38.839279 35.268471 38.643836 35.823069 38.414062 36.253906 C 38.299177 36.469325 38.175713 36.656725 38.082031 36.777344 C 37.988351 36.897962 37.874116 36.946039 38.042969 36.859375 A 1.0001 1.0001 0 0 0 37.5 37.75 L 37.5 40 A 1.0001 1.0001 0 0 0 37.566406 40.355469 C 37.96323 41.396284 38.86925 41.965243 39.779297 42.392578 C 40.689344 42.819914 41.697823 43.137828 42.632812 43.515625 C 43.567803 43.893422 44.413432 44.328183 44.996094 44.875 C 45.335751 45.193762 45.572697 45.567242 45.746094 46 L 27.423828 46 C 27.579409 45.61548 27.631922 45.108674 27.894531 44.826172 C 28.394446 44.288389 29.106177 43.869221 29.912109 43.496094 C 30.718042 43.122966 31.602531 42.80459 32.419922 42.371094 C 33.237312 41.937598 34.056982 41.344641 34.433594 40.355469 A 1.0001 1.0001 0 0 0 34.5 40 L 34.5 37.75 A 1.0001 1.0001 0 0 0 33.955078 36.859375 C 34.123724 36.945725 34.009686 36.897844 33.916016 36.777344 C 33.822346 36.656848 33.700764 36.469214 33.585938 36.253906 C 33.356282 35.823291 33.160346 35.268068 33.119141 34.890625 A 1.0001 1.0001 0 0 0 32.125 34 C 32.04167 34 32.065081 33.994799 32.082031 34.011719 C 32.098985 34.02867 32 33.958333 32 33.5 C 32 33.172583 32.067018 33.081805 32.080078 33.0625 A 1.0001 1.0001 0 0 0 32.455078 31.955078 C 32.455078 31.955078 32.340028 31.575954 32.222656 31.091797 C 32.105283 30.60764 32 29.997024 32 29.75 C 32 28.621424 32.377459 27.764852 33.158203 27.111328 C 33.850597 26.531757 34.992816 26.159087 36.503906 26.070312 z"/></svg>

<?xml version="1.0" encoding="UTF-8"?>
<svg fill="#000000" preserveAspectRatio="none" version="1.1" viewBox="0 0 50 50" xmlns="http://www.w3.org/2000/svg"><path d="m18 2c-7.646 0-11 5.0983-11 9.1484 0 3.0987 1.6484 5.4218 3.8105 6.832 2.1622 1.4102 4.8201 2.0195 7.1895 2.0195 1.0221 0 2.0955-0.12804 3.1602-0.37891 2.2812 2.4068 5.8171 3.3789 8.8398 3.3789 2.3785 0 5.0409-0.64411 7.2012-2.0957 2.1603-1.4516 3.7988-3.8148 3.7988-6.9434 0-2.488-1.1082-4.7841-3.0449-6.3984s-4.6752-2.5625-7.9551-2.5625c-1.1786 0-2.2529 0.12259-3.2363 0.33789-0.25228-0.27118-0.51809-0.53324-0.80859-0.77539-1.9367-1.6144-4.6752-2.5625-7.9551-2.5625zm0 2c2.8951 0 5.1562 0.83297 6.6758 2.0996 0.27394 0.22834 0.5172 0.47403 0.74414 0.72852 0 0 0.001953 0.0019531 0.001953 0.0019531a1.0001 1.0001 0 0 0 0.37695 0.46484c0.7846 1.0629 1.2012 2.3065 1.2012 3.666 0 2.4584-1.1704 4.1115-2.9141 5.2832-1.7437 1.1717-4.0804 1.7559-6.0859 1.7559-2.0146 0-4.3558-0.55732-6.0977-1.6934-1.7418-1.136-2.9023-2.7379-2.9023-5.1582 0-2.9979 2.208-7.1484 9-7.1484zm12 3c2.8951 0 5.1562 0.83297 6.6758 2.0996 1.5196 1.2666 2.3242 2.9534 2.3242 4.8613 0 2.4584-1.1704 4.1115-2.9141 5.2832-1.7437 1.1717-4.0804 1.7559-6.0859 1.7559-2.2365 0-4.8288-0.71525-6.6289-2.1055 0.63557-0.27608 1.2514-0.60142 1.8301-0.99023 2.1603-1.4516 3.7988-3.8148 3.7988-6.9434 0-1.3604-0.34206-2.6587-0.95898-3.8242 0.60575-0.086094 1.2544-0.13672 1.959-0.13672zm-24.5 11c-1.8131 0-3.5 1.2199-3.5 3s1.6869 3 3.5 3 3.5-1.2199 3.5-3-1.6869-3-3.5-3zm39 0c-1.8131 0-3.5 1.2199-3.5 3s1.6869 3 3.5 3 3.5-1.2199 3.5-3-1.6869-3-3.5-3zm-39 2c0.94836 0 1.5 0.57098 1.5 1s-0.55164 1-1.5 1-1.5-0.57098-1.5-1 0.55164-1 1.5-1zm39 0c0.94836 0 1.5 0.57098 1.5 1s-0.55164 1-1.5 1-1.5-0.57098-1.5-1 0.55164-1 1.5-1zm-30.469 4c-2.1658 0-3.921 0.5422-5.1562 1.5762-1.2353 1.034-1.875 2.5524-1.875 4.1738 0 0.62798 0.14472 1.2674 0.27734 1.8145 0.060782 0.25072 0.074846 0.27705 0.12305 0.44922-0.2231 0.3568-0.40039 0.84889-0.40039 1.4863 0 0.79167 0.21352 1.4713 0.66797 1.9258 0.20354 0.20354 0.42306 0.16925 0.65234 0.25781 0.13165 0.53192 0.26619 1.0733 0.5 1.5117 0.1613 0.30244 0.33397 0.57436 0.51758 0.81055 0.04222 0.05431 0.12058 0.09517 0.16211 0.14648v1.5508c-0.13795 0.29796-0.42253 0.58676-1.0176 0.90234-0.6338 0.33613-1.5043 0.6568-2.4102 1.0762-0.90582 0.41937-1.8628 0.94436-2.6426 1.7832-0.77977 0.83884-1.3376 2.0088-1.4277 3.4746a1.0001 1.0001 0 0 0 0.99805 1.0605h20 1 1.9688 1.0312 20a1.0001 1.0001 0 0 0 0.99805-1.0605c-0.092107-1.4987-0.74844-2.6935-1.6328-3.5234-0.88437-0.82996-1.9558-1.3391-2.9824-1.7539-1.0266-0.41483-2.0232-0.73788-2.752-1.0801-0.6881-0.32311-1.0068-0.62645-1.1309-0.88476v-1.5469c0.04144-0.05129 0.11994-0.09219 0.16211-0.14648 0.18335-0.23607 0.35439-0.50626 0.51562-0.80859 0.23375-0.43828 0.37003-0.97997 0.50195-1.5117 0.22929-0.08856 0.4488-0.05427 0.65234-0.25781 0.45445-0.45445 0.66797-1.1341 0.66797-1.9258 0-0.63744-0.17729-1.1295-0.40039-1.4863 0.0482-0.17216 0.06227-0.1985 0.12305-0.44922 0.13263-0.54709 0.27734-1.1865 0.27734-1.8145 0-1.0561-0.27127-2.1928-0.97852-3.1328-0.59033-0.78465-1.5807-1.2893-2.7383-1.4668l-0.39258-0.66016a1.0001 1.0001 0 0 0-0.85938-0.49023c-2.1658 0-3.921 0.5422-5.1562 1.5762s-1.875 2.5524-1.875 4.1738c0 0.62798 0.14472 1.2674 0.27734 1.8145 0.06078 0.25072 0.07484 0.27705 0.12305 0.44922-0.2231 0.3568-0.40039 0.84889-0.40039 1.4863 0 0.79167 0.21352 1.4713 0.66797 1.9258 0.20354 0.20354 0.42306 0.16925 0.65234 0.25781 0.13165 0.53192 0.2662 1.0733 0.5 1.5117 0.1613 0.30244 0.33397 0.57436 0.51758 0.81055 0.04222 0.05431 0.12058 0.09517 0.16211 0.14648v1.5508c-0.13795 0.29796-0.42253 0.58676-1.0176 0.90234-0.6338 0.33613-1.5043 0.6568-2.4102 1.0762-0.90582 0.41937-1.8628 0.94436-2.6426 1.7832-0.77977 0.83884-1.3376 2.0088-1.4277 3.4746a1.0001 1.0001 0 0 0-0.001953 0.060547 1.0001 1.0001 0 0 0-0.001953-0.060547c-0.092107-1.4987-0.74844-2.6935-1.6328-3.5234-0.88437-0.82996-1.9558-1.3391-2.9824-1.7539-1.0266-0.41483-2.0232-0.73788-2.752-1.0801-0.6881-0.32311-1.0068-0.62645-1.1309-0.88476v-1.5469c0.04144-0.05129 0.11994-0.09219 0.16211-0.14648 0.18335-0.23607 0.35439-0.50626 0.51562-0.80859 0.23375-0.43828 0.37003-0.97997 0.50195-1.5117 0.22928-0.08856 0.4488-0.05427 0.65234-0.25781 0.45445-0.45445 0.66797-1.1341 0.66797-1.9258 0-0.63744-0.17729-1.1295-0.40039-1.4863 0.0482-0.17216 0.06227-0.1985 0.12305-0.44922 0.13263-0.54709 0.27734-1.1865 0.27734-1.8145 0-1.0561-0.27127-2.1928-0.97852-3.1328-0.59033-0.78465-1.5807-1.2893-2.7383-1.4668l-0.39258-0.66016a1.0001 1.0001 0 0 0-0.85938-0.49023zm-10.531 2a1.5 1.5 0 0 0-1.5 1.5 1.5 1.5 0 0 0 1.5 1.5 1.5 1.5 0 0 0 1.5-1.5 1.5 1.5 0 0 0-1.5-1.5zm43 0a1.5 1.5 0 0 0-1.5 1.5 1.5 1.5 0 0 0 1.5 1.5 1.5 1.5 0 0 0 1.5-1.5 1.5 1.5 0 0 0-1.5-1.5zm-32.996 0.070312 0.26172 0.43945a1.0001 1.0001 0 0 0 0.85938 0.49023c0.93697 0 1.4226 0.32286 1.7969 0.82031 0.37425 0.49745 0.57812 1.2358 0.57812 1.9297 0 0.24702-0.10528 0.85764-0.22266 1.3418-0.11737 0.48416-0.23242 0.86328-0.23242 0.86328a1.0001 1.0001 0 0 0 0.375 1.1074c0.013055 0.019305 0.080078 0.11008 0.080078 0.4375 0 0.45833-0.098981 0.52867-0.082031 0.51172 0.016951-0.016953 0.040364-0.011719-0.042969-0.011719a1.0001 1.0001 0 0 0-0.99414 0.89062c-0.04158 0.37785-0.23702 0.93244-0.4668 1.3633-0.11489 0.21542-0.23835 0.40282-0.33203 0.52344-0.09368 0.12062-0.20792 0.1687-0.039062 0.082031a1.0001 1.0001 0 0 0-0.54297 0.89062v2.25a1.0001 1.0001 0 0 0 0.066406 0.35547c0.39682 1.0408 1.3028 1.6098 2.2129 2.0371 0.91005 0.42734 1.9185 0.74525 2.8535 1.123 0.93499 0.3778 1.7806 0.81256 2.3633 1.3594 0.33966 0.31876 0.5766 0.69224 0.75 1.125h-18.322c0.15558-0.38452 0.20809-0.89133 0.4707-1.1738 0.49991-0.53778 1.2116-0.95695 2.0176-1.3301 0.80593-0.37313 1.6904-0.6915 2.5078-1.125 0.81739-0.4335 1.6371-1.0265 2.0137-2.0156a1.0001 1.0001 0 0 0 0.066406-0.35547v-2.25a1.0001 1.0001 0 0 0-0.54492-0.89062c0.16865 0.08635 0.054608 0.038469-0.039062-0.082031-0.09367-0.1205-0.21525-0.30813-0.33008-0.52344-0.22966-0.43062-0.42559-0.98584-0.4668-1.3633a1.0001 1.0001 0 0 0-0.99414-0.89062c-0.083333 0-0.059921-0.005201-0.042969 0.011719 0.016953 0.016951-0.082031-0.053386-0.082031-0.51172 0-0.32742 0.067023-0.4182 0.080078-0.4375a1.0001 1.0001 0 0 0 0.375-1.1074s-0.11505-0.37912-0.23242-0.86328c-0.11737-0.48416-0.22266-1.0948-0.22266-1.3418 0-1.1286 0.37746-1.9851 1.1582-2.6387 0.69239-0.57957 1.8346-0.95224 3.3457-1.041zm23 0 0.26172 0.43945a1.0001 1.0001 0 0 0 0.85938 0.49023c0.93697 0 1.4226 0.32286 1.7969 0.82031 0.37425 0.49745 0.57812 1.2358 0.57812 1.9297 0 0.24702-0.10528 0.85764-0.22266 1.3418-0.11737 0.48416-0.23242 0.86328-0.23242 0.86328a1.0001 1.0001 0 0 0 0.375 1.1074c0.013055 0.019305 0.080078 0.11008 0.080078 0.4375 0 0.45833-0.098981 0.52867-0.082031 0.51172 0.016951-0.016953 0.040364-0.011719-0.042969-0.011719a1.0001 1.0001 0 0 0-0.99414 0.89062c-0.04158 0.37785-0.23702 0.93244-0.4668 1.3633-0.11488 0.21542-0.23835 0.40282-0.33203 0.52344-0.09368 0.12062-0.20792 0.1687-0.039062 0.082031a1.0001 1.0001 0 0 0-0.54297 0.89062v2.25a1.0001 1.0001 0 0 0 0.066406 0.35547c0.39682 1.0408 1.3028 1.6098 2.2129 2.0371 0.91005 0.42734 1.9185 0.74525 2.8535 1.123 0.93499 0.3778 1.7806 0.81256 2.3633 1.3594 0.33966 0.31876 0.5766 0.69224 0.75 1.125h-18.322c0.15558-0.38452 0.20809-0.89133 0.4707-1.1738 0.49992-0.53778 1.2116-0.95695 2.0176-1.3301 0.80593-0.37313 1.6904-0.6915 2.5078-1.125 0.81739-0.4335 1.6371-1.0265 2.0137-2.0156a1.0001 1.0001 0 0 0 0.066406-0.35547v-2.25a1.0001 1.0001 0 0 0-0.54492-0.89062c0.16865 0.08635 0.054608 0.038469-0.039062-0.082031-0.09367-0.1205-0.21525-0.30813-0.33008-0.52344-0.22966-0.43062-0.42559-0.98584-0.4668-1.3633a1.0001 1.0001 0 0 0-0.99414-0.89062c-0.08333 0-0.059919-0.005201-0.042969 0.011719 0.016954 0.016951-0.082031-0.053386-0.082031-0.51172 0-0.32742 0.067018-0.4182 0.080078-0.4375a1.0001 1.0001 0 0 0 0.375-1.1074s-0.11505-0.37912-0.23242-0.86328c-0.11737-0.48416-0.22266-1.0948-0.22266-1.3418 0-1.1286 0.37746-1.9851 1.1582-2.6387 0.69239-0.57957 1.8346-0.95224 3.3457-1.041z"/></svg>
